X: 5768
T: Cailroe Ramblers
R: jig
M: 6/8
K: Cmajor
|:Add cde|A/B/cA GED|dcA fed|ecA Gde|
fed edc|dcA fga|d/^d/e=d cAd|cAe d3:|
fed a2 b|c'gf edc|fed a/b/ag|ad'c' d'2 e'|
f'e'd' ac'd'|e'd'c' gfe|fed eag|Ad^c d3|
fed a/b/ab|c'gf edc|Ade f/a/fg|ad'c' d'2 e'|
f'e'd' e'd'c'|d'c'a gea|d/^d/e=d cAd|cAe d3||

